seeds/icons/disabled.svg

<?xml version="1.0" encoding="utf-8"?><!-- Uploaded to: SVG Repo, www.svgrepo.com, Generator: SVG Repo Mixer Tools -->
<svg width="1.5rem" height="1.5rem" viewBox="0 0 24 24" fill="none" xmlns="http://www.w3.org/2000/svg">
<path d="M21 18.5441L18.7586 19.937L16.069 14.3656H10.6897M10.6897 14.3656H9.7931L8 6.93699H9.7931L10.0421 9M10.6897 14.3656L10.0421 9M10.0421 9H14" stroke="#000000" stroke-width="2" stroke-linecap="round" stroke-linejoin="round"/>
<path fill-rule="evenodd" clip-rule="evenodd" d="M16.086 18.7037C15.6069 18.2246 14.7732 18.407 14.3563 18.9411C13.5014 20.0365 12.1687 20.7407 10.6716 20.7407C8.09153 20.7407 6 18.6492 6 16.0692C6 14.8581 6.46089 13.7546 7.21684 12.9246C7.50743 12.6055 7.65437 12.1655 7.53036 11.7521C7.32854 11.0794 6.53699 10.7863 6.03229 11.2747C4.77908 12.4876 4 14.1874 4 16.0692C4 19.7538 6.98696 22.7407 10.6716 22.7407C12.9844 22.7407 15.0223 21.5639 16.2192 19.7763C16.4458 19.4379 16.374 18.9917 16.086 18.7037Z" fill="#000000"/>
<path d="M10.25 3C10.25 3.69035 9.69036 4.25 9 4.25C8.30964 4.25 7.75 3.69035 7.75 3C7.75 2.30964 8.30964 1.75 9 1.75C9.69036 1.75 10.25 2.30964 10.25 3Z" fill="#000000" stroke="#000000" stroke-width="1.5"/>
</svg>

<svg xmlns="http://www.w3.org/2000/svg" width="1.5rem" height="1.5rem" fill="none" viewBox="0 0 24 24"><path stroke="#000" stroke-linecap="round" stroke-linejoin="round" stroke-width="2" d="m21 18.544-2.241 1.393-2.69-5.571h-5.38m0 0h-.896L8 6.937h1.793L10.043 9m.647 5.366L10.042 9m0 0H14"/><path fill="#000" fill-rule="evenodd" d="M16.086 18.704c-.48-.48-1.313-.297-1.73.237a4.672 4.672 0 1 1-7.14-6.016c.291-.32.438-.76.314-1.173-.201-.673-.993-.966-1.498-.477a6.672 6.672 0 1 0 10.187 8.502c.227-.34.155-.785-.133-1.073" clip-rule="evenodd"/><path fill="#000" stroke="#000" stroke-width="1.5" d="M10.25 3a1.25 1.25 0 1 1-2.5 0 1.25 1.25 0 0 1 2.5 0Z"/></svg>
